X:1
T:There’s Three good Fellows ayont yon Glen, with Variations
M:9/8
L:1/8
B:Mulhollan – Selection of Irish and Scots Tunes (Edinburgh, 1804, p. 15)
Z:AK/Fiddler’s Companion
K:Gmin
B|G3 DGA B2d|F2F CFG B2c|BAG DGA Bcd|cBA (B/c/d)^F G2:|
|:d|g2G B2d bag|a2F A2c (f/g/a)f|bag fed cBA|BAG ^FdF G2:|
|:A|B2G D2G B2G|A2C F2A f2a|d2D Bcd gab|ab/a/g dg^f [G2g2]:|
|:a|bag dgb dgb|agf cfa cfa|bag dgf edc|BAG ^FdF G2:|
|:D|(G/A/BG) D2G BAG|F/G/AF C2F AGF|G/A/BG DGA Bcd|cBA (B/c/d)^F G2:|
|:a|b/a/g/a/b d/c/B/c/d G2f|a/g/f/g/a c/B/A/B/c F2B|d/c/B/c/d b/a/g/a/b d/c/B/c/d|AB/A/G Dg^f g2:|
|:B/c/|dc/B/A/G/ dc/B/A/G/ BAB|cB/A/G/F/ cB/A/G/F/ BAB|(DGF/G/) (DBA/B/) (DBA/G/)|F2 e d2 ^F G2:|
|:D|GBd g2G B2d|FAc f2F B2d|Bcd a2d c2a|B2g A2^f g2:|
|:d|(g/a/b)g d2g bag|f/g/af c2f agf|gg/a/bg dgd BdB|{d}cBA B/c/d^F G2:|
|:B/c/|dc/B/A/G/ DGB DGB|cB/A/G/F/ CFA CFA|dc/B/A/G/ DGF EDC|B,A,B, G,G^F G2:|
|:D|GB/c/d/B/ GB/c/d/B/ GB/c/d/B/|FA/B/c/A/ FA/B/c/A/ FA/B/c/A|GB/c/d/B/ GB/c/d/B/ GB/c/d/B/|CDE DCB, G,2:|
|:a|bag d'c'b agf|agf c'ba gf=e|f=ed bag f=ed|AB/A/G Dg^fg:|]

